X: 14977
T: General Macdonald
R: reel
M: 4/4
K: Dmajor
fAdd dAdd|fAdd faga|fAdd dAdd|eAcc e~g3|
fAdd dAdd|fAdd f~a3|gAfA eAcc|eAcc e~g3||
fdad fgag|fdad faga|fdad fgaf|ecgc e~g3|
fdad fgag|fdad f~a3|afge fdaf|ecgc e~g3||

